X:1
T:[ID 2-56b]
T:[ID 2-56b]
T:Bezeichnung standardisiert: Menuett Men\"uet 16.
T:Urheber unbekannt Datum in der hier transkribierten schriftlichen Quelle: 1767
C:Urheber unbekannt
C:Datum in der hier transkribierten schriftlichen Quelle: 1767
L:1/8
M:3/4
K:D
V:1 treble 
V:1
 d4 ef | dc' d'4 | d4 ef | dc' d'4 | b2 agfe | a2 gfed | ef g2 fg | e6 :: A4 Bc | A^g a4 | A4 Bc | %11
 Af g4 | bagfed | cBAGFE | FA d2 ce | d6 :| %16

